source/images/icons/twitter.svg

<?xml version="1.0" encoding="UTF-8" standalone="no"?>
<svg width="30px" height="30px" viewBox="0 0 30 30" version="1.1" xmlns="http://www.w3.org/2000/svg" xmlns:xlink="http://www.w3.org/1999/xlink">
    <!-- Generator: Sketch 39.1 (31720) - http://www.bohemiancoding.com/sketch -->
    <title>twitter</title>
    <desc>Created with Sketch.</desc>
    <defs></defs>
    <g id="Speakers" stroke="none" stroke-width="1" fill="none" fill-rule="evenodd">
        <path d="M15,0 C6.71625,0 0,6.71625 0,15 C0,23.28375 6.71625,30 15,30 C23.28375,30 30,23.28375 30,15 C30,6.71625 23.28375,0 15,0 L15,0 Z M22.5825,12.05625 C22.81125,17.10625 19.045,22.73625 12.3775,22.73625 C10.35,22.73625 8.46375,22.14125 6.875,21.1225 C8.78,21.3475 10.68125,20.8175 12.19,19.63625 C10.62,19.6075 9.29375,18.56875 8.835,17.1425 C9.39875,17.25 9.95375,17.21875 10.4575,17.08125 C8.73125,16.73375 7.53875,15.17875 7.5775,13.515 C8.0625,13.78375 8.615,13.945 9.20375,13.96375 C7.605,12.895 7.1525,10.78375 8.0925,9.17 C9.8625,11.3425 12.50875,12.77125 15.4925,12.92125 C14.96875,10.67625 16.6725,8.5125 18.99125,8.5125 C20.0225,8.5125 20.95625,8.94875 21.61125,9.64625 C22.42875,9.48625 23.19875,9.18625 23.89125,8.775 C23.6225,9.61375 23.05375,10.31625 22.3125,10.76125 C23.03875,10.67375 23.73125,10.48125 24.37375,10.195 C23.89375,10.9175 23.28625,11.55 22.5825,12.05625 L22.5825,12.05625 Z" id="twitter" fill="#0D41C2"></path>
    </g>
</svg>

<svg width="30" height="30" viewBox="0 0 30 30" xmlns="http://www.w3.org/2000/svg"><title>twitter</title><path d="M15 0C6.716 0 0 6.716 0 15c0 8.284 6.716 15 15 15 8.284 0 15-6.716 15-15 0-8.284-6.716-15-15-15zm7.582 12.056c.23 5.05-3.537 10.68-10.205 10.68-2.027 0-3.913-.595-5.502-1.614a7.223 7.223 0 0 0 5.315-1.486 3.598 3.598 0 0 1-3.355-2.494 3.6 3.6 0 0 0 1.622-.06c-1.726-.348-2.918-1.903-2.88-3.567.486.269 1.038.43 1.627.449A3.596 3.596 0 0 1 8.092 9.17a10.191 10.191 0 0 0 7.4 3.751c-.523-2.245 1.18-4.409 3.5-4.409 1.03 0 1.964.437 2.62 1.134a7.161 7.161 0 0 0 2.28-.871 3.605 3.605 0 0 1-1.58 1.986 7.162 7.162 0 0 0 2.062-.566 7.206 7.206 0 0 1-1.791 1.861z" fill="#0D41C2" fill-rule="evenodd"/></svg>
